Numix/16/status/aptdaemon-working.svg

<svg xmlns="http://www.w3.org/2000/svg" viewBox="0 0 16 16">
 <path d="m 5 2 l -2 3 l 4.5 0 l 0 -3 l -2.5 0 z m 3.5 0 l 0 3 l 4.5 0 l -2 -3 l -2.5 0 z m -5.5 4 l 0 7 l 5.553 0 c -0.148 -1.185 0.215 -2.425 1.119 -3.328 c 0.777 -0.777 1.806 -1.172 2.828 -1.172 c 0.167 0 0.333 0.028 0.5 0.049 l 0 -2.549 l -10 0 z" style="fill:#c28e5c"/>
 <path transform="scale(-1,1)" d="m -12.5 10 a 2.5 2.5 0 0 1 2.31 1.543 2.5 2.5 0 0 1 -0.542 2.724 2.5 2.5 0 0 1 -2.724 0.542 A 2.5 2.5 0 0 1 -15 12.5" style="stroke-dasharray:none;stroke-opacity:1;fill:none;opacity:1;stroke-miterlimit:4;fill-opacity:1;stroke:#4db147;fill-rule:nonzero;stroke-linecap:butt;stroke-linejoin:miter;stroke-width:1;stroke-dashoffset:0"/>
</svg>

<?xml version="1.0" encoding="UTF-8" standalone="no"?>
<svg
   xmlns:dc="http://purl.org/dc/elements/1.1/"
   xmlns:cc="http://creativecommons.org/ns#"
   xmlns:rdf="http://www.w3.org/1999/02/22-rdf-syntax-ns#"
   xmlns:svg="http://www.w3.org/2000/svg"
   xmlns="http://www.w3.org/2000/svg"
   xmlns:sodipodi="http://sodipodi.sourceforge.net/DTD/sodipodi-0.dtd"
   xmlns:inkscape="http://www.inkscape.org/namespaces/inkscape"
   width="16"
   height="16"
   viewBox="0 0 16 16"
   id="svg2"
   version="1.1"
   inkscape:version="0.91 r"
   sodipodi:docname="aptdaemon-working.svg">
  <metadata
     id="metadata10">
    <rdf:RDF>
      <cc:Work
         rdf:about="">
        <dc:format>image/svg+xml</dc:format>
        <dc:type
           rdf:resource="http://purl.org/dc/dcmitype/StillImage" />
        <dc:title></dc:title>
      </cc:Work>
    </rdf:RDF>
  </metadata>
  <defs
     id="defs8">
    <clipPath
       id="clipPath-408241621">
      <g
         id="g3616"
         transform="translate(0,-1004.3622)">
        <path
           id="path3618"
           transform="matrix(15.333333,0,0,11.5,414.99999,878.8622)"
           d="m -24,13 c 0,1.105 -0.672,2 -1.5,2 -0.828,0 -1.5,-0.895 -1.5,-2 0,-1.105 0.672,-2 1.5,-2 0.828,0 1.5,0.895 1.5,2 z"
           inkscape:connector-curvature="0"
           style="fill:#1890d0" />
      </g>
    </clipPath>
    <clipPath
       id="clipPath-408241621-1">
      <g
         id="g3616-3"
         transform="translate(0,-1004.3622)">
        <path
           id="path3618-3"
           transform="matrix(15.333333,0,0,11.5,414.99999,878.8622)"
           d="m -24,13 c 0,1.105 -0.672,2 -1.5,2 -0.828,0 -1.5,-0.895 -1.5,-2 0,-1.105 0.672,-2 1.5,-2 0.828,0 1.5,0.895 1.5,2 z"
           inkscape:connector-curvature="0"
           style="fill:#1890d0" />
      </g>
    </clipPath>
    <clipPath
       id="clipPath-408241621-6">
      <g
         id="g3616-1"
         transform="translate(0,-1004.3622)">
        <path
           id="path3618-8"
           transform="matrix(15.333333,0,0,11.5,414.99999,878.8622)"
           d="m -24,13 c 0,1.105 -0.672,2 -1.5,2 -0.828,0 -1.5,-0.895 -1.5,-2 0,-1.105 0.672,-2 1.5,-2 0.828,0 1.5,0.895 1.5,2 z"
           inkscape:connector-curvature="0"
           style="fill:#1890d0" />
      </g>
    </clipPath>
    <clipPath
       id="clipPath-408241621-9">
      <g
         id="g3616-16"
         transform="translate(0,-1004.3622)">
        <path
           id="path3618-4"
           transform="matrix(15.333333,0,0,11.5,414.99999,878.8622)"
           d="m -24,13 c 0,1.105 -0.672,2 -1.5,2 -0.828,0 -1.5,-0.895 -1.5,-2 0,-1.105 0.672,-2 1.5,-2 0.828,0 1.5,0.895 1.5,2 z"
           inkscape:connector-curvature="0"
           style="fill:#1890d0" />
      </g>
    </clipPath>
    <clipPath
       id="clipPath-408241621-4">
      <g
         id="g3616-4"
         transform="translate(0,-1004.3622)">
        <path
           id="path3618-82"
           transform="matrix(15.333333,0,0,11.5,414.99999,878.8622)"
           d="m -24,13 c 0,1.105 -0.672,2 -1.5,2 -0.828,0 -1.5,-0.895 -1.5,-2 0,-1.105 0.672,-2 1.5,-2 0.828,0 1.5,0.895 1.5,2 z"
           inkscape:connector-curvature="0"
           style="fill:#1890d0" />
      </g>
    </clipPath>
  </defs>
  <sodipodi:namedview
     pagecolor="#ffffff"
     bordercolor="#666666"
     borderopacity="1"
     objecttolerance="10"
     gridtolerance="10"
     guidetolerance="10"
     inkscape:pageopacity="0"
     inkscape:pageshadow="2"
     inkscape:window-width="1920"
     inkscape:window-height="1056"
     id="namedview6"
     showgrid="true"
     inkscape:zoom="22.627417"
     inkscape:cx="7.5059503"
     inkscape:cy="5.4901575"
     inkscape:window-x="0"
     inkscape:window-y="24"
     inkscape:window-maximized="1"
     inkscape:current-layer="svg2">
    <inkscape:grid
       type="xygrid"
       id="grid4138" />
  </sodipodi:namedview>
  <path
     style="fill:#c28e5c"
     d="M 5 2 L 3 5 L 7.5 5 L 7.5 2 L 5 2 z M 8.5 2 L 8.5 5 L 13 5 L 11 2 L 8.5 2 z M 3 6 L 3 13 L 8.5527344 13 C 8.4051537 11.81457 8.7678893 10.57541 9.671875 9.671875 C 10.448604 8.8947583 11.477871 8.5 12.5 8.5 C 12.667313 8.5 12.833444 8.5277278 13 8.5488281 L 13 6 L 3 6 z "
     id="path4" />
  <g
     id="g4147-5"
     transform="matrix(0.225,0,0,0.225,-46.928295,7.611356)"
     style="fill:#ee545b;fill-opacity:1;stroke:#000000;stroke-width:17.77777863;stroke-miterlimit:4;stroke-dasharray:none;stroke-opacity:1" />
  <g
     id="g4147-3"
     transform="matrix(0.175,0,0,0.175,-12.512491,9.3625)"
     style="fill:#ee545b;fill-opacity:1;stroke:#000000;stroke-width:22.8571434;stroke-miterlimit:4;stroke-dasharray:none;stroke-opacity:1" />
  <g
     id="g4147-34"
     transform="matrix(0.15,0,0,0.15,8.9000002,8.9000002)"
     style="fill:#ee545b;fill-opacity:1;stroke:#000000;stroke-opacity:1;stroke-width:13.33333333;stroke-miterlimit:4;stroke-dasharray:none" />
  <path
     style="opacity:1;fill:none;fill-opacity:1;fill-rule:nonzero;stroke:#4db147;stroke-width:1;stroke-linecap:butt;stroke-linejoin:miter;stroke-miterlimit:4;stroke-dasharray:none;stroke-dashoffset:0;stroke-opacity:1"
     id="path4139"
     transform="scale(-1,1)"
     sodipodi:type="arc"
     sodipodi:cx="-12.5"
     sodipodi:cy="12.5"
     sodipodi:rx="2.5"
     sodipodi:ry="2.5"
     sodipodi:start="4.712389"
     sodipodi:end="3.1415927"
     sodipodi:open="true"
     d="m -12.5,10 a 2.5,2.5 0 0 1 2.309699,1.543291 2.5,2.5 0 0 1 -0.541932,2.724476 2.5,2.5 0 0 1 -2.724476,0.541932 A 2.5,2.5 0 0 1 -15,12.5" />
</svg>
